X:5
T:How We Spent the Christmas
R:reel
S:O'Neill's Waifs and Strays of Gaelic Melody; from Francis O'Neill.
Z:John Walsh Dec 99
S:John Walsh <walsh:math.ubc.ca> irtrad-l 2001-12-7
M:C|
K:D
df | eA (3AAA BG (3GGG | (3AGA fe dB (3BBB | eA (3AAA BG (3GGG | Agfe d2 :|
de | "tr"fdfa "tr"fdfa | edef dB B2 |1 "tr"fdfa "tr"fdfa | edeg d2 :|2 ABAF ABdf | afef d2 |]
